X: 030579
T: Clancy's Dream
S: Treoir 
Z: B.Black
M: 6/8
L: 1/8
R: jig 
K: D
faf gab | faa afd | faf gab | afd e2 d |
faf gab | faa afd | fef dBA | Bdf e2 d :|
f2 e dAA | BAA dcd | gfe dAA | Bdf e2 d |
f2 e dAA | BAA dcd | gfe dAA | Bdf e2 d :|
